modules/feathericon/icons/donut.svg

<?xml version="1.0" encoding="UTF-8"?>
<svg width="24px" height="24px" viewBox="0 0 24 24" version="1.1" xmlns="http://www.w3.org/2000/svg" xmlns:xlink="http://www.w3.org/1999/xlink">
    <!-- Generator: sketchtool 52.2 (67145) - http://www.bohemiancoding.com/sketch -->
    <title>donut</title>
    <desc>Created with sketchtool.</desc>
    <g id="food" stroke="none" stroke-width="1" fill="none" fill-rule="evenodd">
        <g id="donut" fill="#000000">
            <path d="M12,16 C14.209139,16 16,14.209139 16,12 C16,9.790861 14.209139,8 12,8 C9.790861,8 8,9.790861 8,12 C8,14.209139 9.790861,16 12,16 Z M12,22 C6.4771525,22 2,17.5228475 2,12 C2,6.4771525 6.4771525,2 12,2 C17.5228475,2 22,6.4771525 22,12 C22,17.5228475 17.5228475,22 12,22 Z M12,4 L14,4 L14,6 L12,6 L12,4 Z M18,9 L20,9 L20,11 L18,11 L18,9 Z M5,14 C5.55228475,14 6,13.5522847 6,13 C6,12.4477153 5.55228475,12 5,12 C4.44771525,12 4,12.4477153 4,13 C4,13.5522847 4.44771525,14 5,14 Z M9,7 C9.55228475,7 10,6.55228475 10,6 C10,5.44771525 9.55228475,5 9,5 C8.44771525,5 8,5.44771525 8,6 C8,6.55228475 8.44771525,7 9,7 Z M17,8 C17.5522847,8 18,7.55228475 18,7 C18,6.44771525 17.5522847,6 17,6 C16.4477153,6 16,6.44771525 16,7 C16,7.55228475 16.4477153,8 17,8 Z M19,15 C19.5522847,15 20,14.5522847 20,14 C20,13.4477153 19.5522847,13 19,13 C18.4477153,13 18,13.4477153 18,14 C18,14.5522847 18.4477153,15 19,15 Z M15,17 L17,17 L17,19 L15,19 L15,17 Z M11,20 C11.5522847,20 12,19.5522847 12,19 C12,18.4477153 11.5522847,18 11,18 C10.4477153,18 10,18.4477153 10,19 C10,19.5522847 10.4477153,20 11,20 Z M6,16 L8,16 L8,18 L6,18 L6,16 Z M5,8 L7,8 L7,10 L5,10 L5,8 Z" id="Shape"></path>
        </g>
    </g>
</svg>

<svg width="24" height="24" viewBox="0 0 24 24" xmlns="http://www.w3.org/2000/svg"><path d="M12 16a4 4 0 1 0 0-8 4 4 0 0 0 0 8zm0 6C6.477 22 2 17.523 2 12S6.477 2 12 2s10 4.477 10 10-4.477 10-10 10zm0-18h2v2h-2V4zm6 5h2v2h-2V9zM5 14a1 1 0 1 0 0-2 1 1 0 0 0 0 2zm4-7a1 1 0 1 0 0-2 1 1 0 0 0 0 2zm8 1a1 1 0 1 0 0-2 1 1 0 0 0 0 2zm2 7a1 1 0 1 0 0-2 1 1 0 0 0 0 2zm-4 2h2v2h-2v-2zm-4 3a1 1 0 1 0 0-2 1 1 0 0 0 0 2zm-5-4h2v2H6v-2zM5 8h2v2H5V8z" fill="#000" fill-rule="evenodd"/></svg>
